actions/symbolic/insert-emoticon-symbolic.svg

<svg viewBox="0 0 16 16" xmlns="http://www.w3.org/2000/svg"><path d="m8 2c-3.313714 0-6 2.6862857-6 6 0 3.313714 2.686286 6 6 6s6-2.686286 6-6c0-3.3137143-2.686286-6-6-6zm-2.1875 3.4375c.5602 0 1.1203875.5110031 1.4921875 1.5332031.0368.1028-.1542.2885-.25.1875-.3604-.3802-.7923875-.53125-1.2421875-.53125-.45 0-.8798344.15105-1.2402344.53125-.096.101-.2887531-.0845-.2519531-.1875.3716-1.0222.9319875-1.5332031 1.4921875-1.5332031zm4.375 0c .56 0 1.120188.5108031 1.492188 1.5332031.036799.1028-.156154.2885-.251954.1875-.3606-.3802-.790234-.53125-1.240234-.53125s-.8815875.15105-1.2421875.53125c-.0958.101-.2868-.0845-.25-.1875.3718-1.0222.9319875-1.5332031 1.4921875-1.5332031zm-4.8417969 4.1796875c.0416313-.0063188.0882188.0052125.1367188.0390625 1.6124 1.1246 3.4131562 1.1312 5.0351561 0 .194-.1352.367928.0978531.236328.3144531-.4916.8091999-1.483106 1.5312499-2.753906 1.5312499s-2.2623062-.72185-2.7539062-1.5312499c-.0987001-.16245-.0252844-.3345593.0996093-.3535156z" fill="#bebebe"/></svg>

<?xml version="1.0" encoding="UTF-8" standalone="no"?>
<svg
   xmlns:dc="http://purl.org/dc/elements/1.1/"
   xmlns:cc="http://creativecommons.org/ns#"
   xmlns:rdf="http://www.w3.org/1999/02/22-rdf-syntax-ns#"
   xmlns:svg="http://www.w3.org/2000/svg"
   xmlns="http://www.w3.org/2000/svg"
   xmlns:sodipodi="http://sodipodi.sourceforge.net/DTD/sodipodi-0.dtd"
   xmlns:inkscape="http://www.inkscape.org/namespaces/inkscape"
   viewBox="0 0 16 16"
   id="svg3301"
   version="1.1"
   inkscape:version="0.91 r13725"
   sodipodi:docname="insert-emoticon-symbolic.svg">
  <metadata
     id="metadata3309">
    <rdf:RDF>
      <cc:Work
         rdf:about="">
        <dc:format>image/svg+xml</dc:format>
        <dc:type
           rdf:resource="http://purl.org/dc/dcmitype/StillImage" />
      </cc:Work>
    </rdf:RDF>
  </metadata>
  <sodipodi:namedview
     pagecolor="#ffffff"
     bordercolor="#666666"
     borderopacity="1"
     objecttolerance="10"
     gridtolerance="10"
     guidetolerance="10"
     inkscape:pageopacity="0"
     inkscape:pageshadow="2"
     inkscape:window-width="640"
     inkscape:window-height="480"
     id="namedview3307"
     showgrid="false"
     inkscape:zoom="29.123961"
     inkscape:cx="9.0976139"
     inkscape:cy="4.5982925"
     inkscape:current-layer="svg3301" />
  <defs
     id="defs3051">
    <style
       type="text/css"
       id="current-color-scheme">
      .ColorScheme-Text {
        color:#bebebe;
      }
      </style>
  </defs>
  <path
     style="color:#bebebe;fill:currentColor;fill-opacity:1;stroke:none"
     d="M 8 2 C 4.686286 2 2 4.6862857 2 8 C 2 11.313714 4.686286 14 8 14 C 11.313714 14 14 11.313714 14 8 C 14 4.6862857 11.313714 2 8 2 z M 5.8125 5.4375 C 6.3727 5.4375 6.9328875 5.9485031 7.3046875 6.9707031 C 7.3414875 7.0735031 7.1504875 7.2592031 7.0546875 7.1582031 C 6.6942875 6.7780031 6.2623 6.6269531 5.8125 6.6269531 C 5.3625 6.6269531 4.9326656 6.7780031 4.5722656 7.1582031 C 4.4762656 7.2592031 4.2835125 7.0737031 4.3203125 6.9707031 C 4.6919125 5.9485031 5.2523 5.4375 5.8125 5.4375 z M 10.1875 5.4375 C 10.7475 5.4375 11.307688 5.9483031 11.679688 6.9707031 C 11.716487 7.0735031 11.523534 7.2592031 11.427734 7.1582031 C 11.067134 6.7780031 10.6375 6.6269531 10.1875 6.6269531 C 9.7375 6.6269531 9.3059125 6.7780031 8.9453125 7.1582031 C 8.8495125 7.2592031 8.6585125 7.0737031 8.6953125 6.9707031 C 9.0671125 5.9485031 9.6273 5.4375 10.1875 5.4375 z M 5.3457031 9.6171875 C 5.3873344 9.6108687 5.4339219 9.6224 5.4824219 9.65625 C 7.0948219 10.78085 8.8955781 10.78745 10.517578 9.65625 C 10.711578 9.52105 10.885506 9.7541031 10.753906 9.9707031 C 10.262306 10.779903 9.2708 11.501953 8 11.501953 C 6.7292 11.501953 5.7376938 10.780103 5.2460938 9.9707031 C 5.1473937 9.8082531 5.2208094 9.6361438 5.3457031 9.6171875 z "
     id="path3305" />
  <g
     id="g3429"
     transform="matrix(0.2,0,0,0.2,1.6,1.6)" />
</svg>
